shader legsShader(
    color colourIn = color(0,0,0),
	float dispScale=0.005,
    output color Cout=0,
	output float resultDisplacement=0
)
{
    point customSpace = point(P[0]* 10,P[1]* 10,P[2]* 10);
    float perlinNoise = noise("perlin",customSpace);

	resultDisplacement = perlinNoise * -dispScale;
    Cout=colourIn;
}